packages/foundations/assets/icons/functional/images/navigation/log_out_16.svg

<svg width="16" height="16" viewBox="0 0 16 16" fill="none" xmlns="http://www.w3.org/2000/svg">
<g clip-path="url(#clip0_187_63)">
<path fill-rule="evenodd" clip-rule="evenodd" d="M2 11.2C2 12.525 3.07504 13.6 4.4 13.6H6C6.45 13.6 6.8 13.225 6.8 12.8C6.8 12.35 6.45 12 6 12H4.4C3.97504 12 3.6 11.65 3.6 11.2V4.79999C3.6 4.34999 3.97504 3.99999 4.4 3.99999H6C6.45 3.99999 6.8 3.64999 6.8 3.19999C6.8 2.77503 6.45 2.39999 6 2.39999H4.4C3.07504 2.39999 2 3.47503 2 4.79999V11.2ZM6 7.99999C6 8.42495 6.35 8.79999 6.8 8.79999H11.275L10.25 9.82495C10.075 9.97503 10 10.175 10 10.4C10 10.85 10.35 11.2 10.8 11.2C11 11.2 11.2 11.125 11.375 10.975L13.775 8.54999C13.925 8.39999 14 8.19999 14 7.99999C14 7.79999 13.925 7.59999 13.775 7.42495L11.375 5.02495C11.225 4.87503 11 4.79999 10.8 4.79999C10.375 4.79999 10 5.14999 10 5.59999C10 5.79999 10.075 6.02495 10.25 6.17503L11.275 7.19999H6.8C6.35 7.19999 6 7.54999 6 7.99999Z" fill="#1A1C1F"/>
</g>
<defs>
<clipPath id="clip0_187_63">
<rect width="16" height="16" fill="white"/>
</clipPath>
</defs>
</svg>

<svg xmlns="http://www.w3.org/2000/svg" width="16" height="16" fill="none"><g clip-path="url(#a)"><path fill="#1A1C1F" fill-rule="evenodd" d="M2 11.2a2.4 2.4 0 0 0 2.4 2.4H6c.45 0 .8-.375.8-.8 0-.45-.35-.8-.8-.8H4.4c-.425 0-.8-.35-.8-.8V4.8c0-.45.375-.8.8-.8H6c.45 0 .8-.35.8-.8 0-.425-.35-.8-.8-.8H4.4A2.4 2.4 0 0 0 2 4.8zM6 8c0 .425.35.8.8.8h4.475L10.25 9.825a.72.72 0 0 0-.25.575c0 .45.35.8.8.8.2 0 .4-.075.575-.225l2.4-2.425C13.925 8.4 14 8.2 14 8s-.075-.4-.225-.575l-2.4-2.4A.84.84 0 0 0 10.8 4.8c-.425 0-.8.35-.8.8 0 .2.075.425.25.575L11.275 7.2H6.8c-.45 0-.8.35-.8.8" clip-rule="evenodd"/></g><defs><clipPath id="a"><path fill="#fff" d="M0 0h16v16H0z"/></clipPath></defs></svg>
